src/assets/svg/ic_phone_pause.svg

<svg xmlns="http://www.w3.org/2000/svg" width="16" height="16">
    <path d="M14.291 11.809l-2.088-2.09c-.29-.285-.77-.273-1.07.026l-.295.294-.417.411c-.808.806-2.084.836-2.854.067l-.349-.347-1.739-1.74c-.77-.771-.739-2.047.068-2.855l.235-.229.181-.179.295-.297c.301-.302.31-.781.023-1.07l-2.09-2.089c-.287-.287-.765-.277-1.068.025l-.471.53c-.548.548-.935 1.263-1.034 1.882-.246 1.535.655 4.478 3.224 7.045.004.005.01.009.014.012l.013.014c2.567 2.569 5.511 3.471 7.045 3.225.619-.098 1.335-.485 1.883-1.033l.472-.53c.299-.304.31-.783.022-1.072zM10 3h1v4h-1zm2 0h1v4h-1z"/>
</svg>

<?xml version="1.0" encoding="utf-8"?>
<!-- Generator: Adobe Illustrator 16.0.4, SVG Export Plug-In . SVG Version: 6.00 Build 0)  -->
<!DOCTYPE svg PUBLIC "-//W3C//DTD SVG 1.1//EN" "http://www.w3.org/Graphics/SVG/1.1/DTD/svg11.dtd">
<svg version="1.1" id="artwork" xmlns="http://www.w3.org/2000/svg" xmlns:xlink="http://www.w3.org/1999/xlink" x="0px" y="0px"
	 width="16px" height="16px" viewBox="0 0 16 16" enable-background="new 0 0 16 16" xml:space="preserve">
<g>
	<path d="M14.291,11.809l-2.088-2.09c-0.29-0.285-0.77-0.273-1.07,0.026l-0.295,0.294l-0.417,0.411
		c-0.808,0.806-2.084,0.836-2.854,0.067L7.218,10.17L5.479,8.43C4.709,7.659,4.74,6.383,5.547,5.575l0.235-0.229l0.181-0.179
		L6.258,4.87C6.559,4.568,6.568,4.089,6.281,3.8l-2.09-2.089C3.904,1.424,3.426,1.434,3.123,1.736L2.652,2.266
		C2.104,2.814,1.717,3.529,1.618,4.148c-0.246,1.535,0.655,4.478,3.224,7.045c0.004,0.005,0.01,0.009,0.014,0.012
		c0.004,0.004,0.008,0.01,0.013,0.014c2.567,2.569,5.511,3.471,7.045,3.225c0.619-0.098,1.335-0.485,1.883-1.033l0.472-0.53
		C14.568,12.577,14.579,12.098,14.291,11.809z"/>
	<rect x="10" y="3" width="1" height="4"/>
	<rect x="12" y="3" width="1" height="4"/>
</g>
</svg>
